X:1
T:Title
%%score { 1 | 2 }
L:1/8
Q:1/4=100
M:6/8
K:C
V:1 treble nm="Grand Piano"
V:2 bass 
V:1
 C2 E G3 | E2 G c3 | [CAc][CGB]A G2 c | e2 d [Ec]3 | [EG][EG][EG] [Ec]2 [EG] | [FA]2 [GB] [Ac]3 | %6
w: Alfred~Taylor * *||||||
 BBc d2 [FG] | [Ec]2 [Ge] [EG]3 | [EG][EG][EG] A2 A | BAB c3 | A[CGB][CAc] [CG]2 [CEc] | %11
w: |||||
 e2 d [Ec]3 | ddd d2 d | dcd e3 | GGG A2 A | BAB c3 | C2 E G3 | E2 G c3 | [Ec][Ec][Ec] [Ec]2 [Gc] | %19
w: ||||||||
 [Ge]2 [Fd] .[Ec]3 |] %20
w: |
V:2
 C,2 E, G,3 | E,2 G, C3 | F,F,[K:treble][F,CF] [G,CE]2 [G,CE] | [G,G]2 [G,F][K:bass] [C,G,]3 | %4
 [C,C][C,C][C,C] [C,G,]2 [C,C] | [F,C]2 [F,C] [F,C]3 | [G,F][G,F][G,F] [G,F]2[K:bass] [G,,G,] | %7
 [C,G,]2 [C,C] [C,C]3 | [C,C][C,C][C,C][K:treble] [F,CF]2 [F,CF] | [G,F]2 [G,DF] [A,CE]3 | %10
 [F,CF]F,F, E,2 C, | [G,CG]2 [G,F][K:bass] [C,G,]3 | BBB B2 B | BAB c3 | EEE F2 F | FFF E3 | %16
 C,2 E, G,3 | E,2 G, C3 | [C,G,][C,G,][C,G,] [C,G,]2 [E,G,] | [G,C]2 [G,B,] .[C,G,]3 |] %20

